Numix/64/mimetypes/application-x-navi-animation.svg

<?xml version="1.0" encoding="UTF-8" standalone="no"?>
<svg
   xmlns:dc="http://purl.org/dc/elements/1.1/"
   xmlns:cc="http://creativecommons.org/ns#"
   xmlns:rdf="http://www.w3.org/1999/02/22-rdf-syntax-ns#"
   xmlns:svg="http://www.w3.org/2000/svg"
   xmlns="http://www.w3.org/2000/svg"
   xmlns:sodipodi="http://sodipodi.sourceforge.net/DTD/sodipodi-0.dtd"
   xmlns:inkscape="http://www.inkscape.org/namespaces/inkscape"
   width="64px"
   height="64px"
   viewBox="0 0 64 64"
   version="1.1"
   id="svg2"
   inkscape:version="0.91 r13725"
   sodipodi:docname="application-x-navi-animation.svg">
  <metadata
     id="metadata15">
    <rdf:RDF>
      <cc:Work
         rdf:about="">
        <dc:format>image/svg+xml</dc:format>
        <dc:type
           rdf:resource="http://purl.org/dc/dcmitype/StillImage" />
        <dc:title />
      </cc:Work>
    </rdf:RDF>
  </metadata>
  <defs
     id="defs13" />
  <sodipodi:namedview
     pagecolor="#ffffff"
     bordercolor="#666666"
     borderopacity="1"
     objecttolerance="10"
     gridtolerance="10"
     guidetolerance="10"
     inkscape:pageopacity="0"
     inkscape:pageshadow="2"
     inkscape:window-width="1920"
     inkscape:window-height="1013"
     id="namedview11"
     showgrid="false"
     inkscape:zoom="1"
     inkscape:cx="30.539805"
     inkscape:cy="9.6481848"
     inkscape:window-x="0"
     inkscape:window-y="27"
     inkscape:window-maximized="1"
     inkscape:current-layer="svg2">
    <inkscape:grid
       type="xygrid"
       id="grid4139" />
  </sodipodi:namedview>
  <path
     inkscape:connector-curvature="0"
     id="path5"
     d="M 10.671875,0 C 9.296875,0 8,1.355469 8,2.789062 L 8,61.210938 C 8,62.566406 9.375,64 10.671875,64 l 42.65625,0 C 54.625,64 56,62.566406 56,61.210938 L 56,18 38,0 Z m 0,0"
     style="fill:#757d32;fill-opacity:1;fill-rule:nonzero;stroke:none" />
  <path
     inkscape:connector-curvature="0"
     id="path7"
     d="m 42,18 14,14 0,-14 z m 0,0"
     style="fill:#000000;fill-opacity:0.19607801;fill-rule:nonzero;stroke:none" />
  <path
     inkscape:connector-curvature="0"
     id="path9"
     d="M 38,0 55.984375,18 40.757812,18 C 39.410156,18 38,16.574219 38,15.226562 Z m 0,0"
     style="fill:#ffffff;fill-opacity:0.39215698;fill-rule:nonzero;stroke:none" />
  <path
     sodipodi:nodetypes="cccccccc"
     inkscape:connector-curvature="0"
     id="path3809"
     d="M 25.909598,18 24,38.089086 28.880226,33.966506 31.096158,41 34.846159,39.827583 32.630226,32.794088 39,33.399417 Z"
     style="color:#000000;display:inline;overflow:visible;visibility:visible;fill:#f9f9f9;fill-opacity:1;fill-rule:nonzero;stroke:none;stroke-width:2.5;marker:none;enable-background:accumulate" />
  <path
     inkscape:connector-curvature="0"
     id="path13"
     d="M 8,48 8,61.335938 C 8,62.632812 9.375,64 10.664062,64 l 42.671876,0 C 54.625,64 56,62.632812 56,61.335938 L 56,48 Z m 0,0"
     style="fill:#000000;fill-opacity:0.19607801;fill-rule:nonzero;stroke:none" />
  <path
     inkscape:connector-curvature="0"
     id="path4142"
     style="font-style:normal;font-variant:normal;font-weight:bold;font-stretch:normal;font-size:medium;line-height:125%;font-family:'Ubuntu Mono';-inkscape-font-specification:'Ubuntu Mono, Bold';text-align:start;letter-spacing:0px;word-spacing:0px;writing-mode:lr-tb;text-anchor:start;fill:#ffffff;fill-opacity:1;stroke:none;stroke-width:1px;stroke-linecap:butt;stroke-linejoin:miter;stroke-opacity:1"
     d="M 23.535269,62 23.071902,60 20,60 19.390042,62 17,62 c 0.547718,-2.168013 1.10166,-4.14055 1.661826,-5.91761 0.560166,-1.788906 1.10166,-3.483036 1.624482,-5.08239 l 2.502074,0 c 0.547717,1.611201 1.089211,3.323101 1.624482,5.135702 C 24.960582,57.936456 25.489627,59.891222 26,62 Z m -2.053941,-8.867529 c -0.124481,0.414647 -0.242738,0.811524 -0.354771,1.19063 l -0.298756,1.101777 c -0.08714,0.355413 -0.174273,0.716748 -0.26141,1.084007 C 20.491701,56.876144 20.307638,57.609047 20.23295,58 l 2.46246,0 c -0.07469,-0.390953 -0.243127,-1.123861 -0.317816,-1.49112 -0.07469,-0.367259 -0.161826,-0.728594 -0.261411,-1.084007 -0.08714,-0.367259 -0.186722,-0.734518 -0.298756,-1.101777 -0.09958,-0.379106 -0.211618,-0.775983 -0.336099,-1.190625 z"
     sodipodi:nodetypes="cccccccccccccccccsccc" />
  <path
     inkscape:connector-curvature="0"
     id="path4144"
     style="font-style:normal;font-variant:normal;font-weight:bold;font-stretch:normal;font-size:medium;line-height:125%;font-family:'Ubuntu Mono';-inkscape-font-specification:'Ubuntu Mono, Bold';text-align:start;letter-spacing:0px;word-spacing:0px;writing-mode:lr-tb;text-anchor:start;fill:#ffffff;fill-opacity:1;stroke:none;stroke-width:1px;stroke-linecap:butt;stroke-linejoin:miter;stroke-opacity:1"
     d="M 34.058823,62 Q 33.235294,60.169628 32.254901,58.357027 31.294117,56.526655 30.17647,54.696284 L 30.17647,62 28,62 l 0,-11 1.941176,0 q 0.54902,0.781906 1.098039,1.705977 0.54902,0.9063 1.058824,1.812601 0.529411,0.9063 0.960784,1.75929 0.450981,0.852988 0.764707,1.49273 L 33.82353,51 36,51 l 0,11 -1.941177,0 z" />
  <path
     inkscape:connector-curvature="0"
     id="path4146"
     style="font-style:normal;font-variant:normal;font-weight:bold;font-stretch:normal;font-size:medium;line-height:125%;font-family:'Ubuntu Mono';-inkscape-font-specification:'Ubuntu Mono, Bold';text-align:start;letter-spacing:0px;word-spacing:0px;writing-mode:lr-tb;text-anchor:start;fill:#ffffff;fill-opacity:1;stroke:none;stroke-width:1px;stroke-linecap:butt;stroke-linejoin:miter;stroke-opacity:1"
     d="m 38.8,62 0,-2 2.2,0 0,-7 -2.2,0 0,-2 6.4,0 0,2 -2.2,0 0,7 2.2,0 0,2 z"
     sodipodi:nodetypes="ccccccccccccc" />
</svg>

<svg xmlns="http://www.w3.org/2000/svg" viewBox="0 0 64 64">
 <path d="m 10.672 0 c -1.375 0 -2.672 1.355 -2.672 2.789 l 0 58.42 c 0 1.355 1.375 2.789 2.672 2.789 l 42.656 0 c 1.297 0 2.672 -1.434 2.672 -2.789 l 0 -43.21 -18 -18 m -27.328 0" style="fill:#757d32;fill-opacity:1;stroke:none;fill-rule:nonzero"/>
 <path d="m 42 18 14 14 0 -14 z m 0 0" style="fill:#000;fill-opacity:0.196;stroke:none;fill-rule:nonzero"/>
 <path d="m 38 0 17.984 18 -15.227 0 c -1.348 0 -2.758 -1.426 -2.758 -2.773 m 0 -15.227" style="fill:#fff;fill-opacity:0.392;stroke:none;fill-rule:nonzero"/>
 <path d="m 25.91 18 -1.91 20.09 4.88 -4.123 2.216 7.03 3.75 -1.172 -2.216 -7.03 6.37 0.605" style="visibility:visible;fill:#f9f9f9;fill-opacity:1;stroke:none;display:inline;color:#000;fill-rule:nonzero"/>
 <path d="m 8 48 0 13.336 c 0 1.297 1.375 2.664 2.664 2.664 l 42.672 0 c 1.289 0 2.664 -1.367 2.664 -2.664 l 0 -13.336 m -48 0" style="fill:#000;fill-opacity:0.196;stroke:none;fill-rule:nonzero"/>
 <path d="m 23.535 62 -0.463 -2 -3.072 0 -0.61 2 -2.39 0 c 0.548 -2.168 1.102 -4.141 1.662 -5.918 0.56 -1.789 1.102 -3.483 1.624 -5.082 l 2.502 0 c 0.548 1.611 1.089 3.323 1.624 5.136 c 0.548 1.801 1.077 3.756 1.587 5.864 m -4.519 -8.868 c -0.124 0.415 -0.243 0.812 -0.355 1.191 l -0.299 1.102 c -0.087 0.355 -0.174 0.717 -0.261 1.084 c -0.075 0.367 -0.259 1.1 -0.333 1.491 l 2.462 0 c -0.075 -0.391 -0.243 -1.124 -0.318 -1.491 -0.075 -0.367 -0.162 -0.729 -0.261 -1.084 -0.087 -0.367 -0.187 -0.735 -0.299 -1.102 -0.1 -0.379 -0.212 -0.776 -0.336 -1.191 z" style="fill:#fff;fill-opacity:1;stroke:none"/>
 <path d="m 34.06 62 q -0.824 -1.83 -1.804 -3.643 -0.961 -1.83 -2.078 -3.661 l 0 7.304 -2.176 0 l 0 -11 1.941 0 q 0.549 0.782 1.098 1.706 0.549 0.906 1.059 1.813 0.529 0.906 0.961 1.759 0.451 0.853 0.765 1.493 l 0 -6.771 2.176 0 l 0 11 -1.941 0 z" style="fill:#fff;fill-opacity:1;stroke:none"/>
 <path d="m 38.8 62 0 -2 2.2 0 0 -7 -2.2 0 0 -2 6.4 0 0 2 -2.2 0 0 7 2.2 0 0 2 z" style="fill:#fff;fill-opacity:1;stroke:none"/>
</svg>
